austria/municipalities/70914.svg

<svg xmlns="http://www.w3.org/2000/svg" width="1336" height="1586" style="shape-rendering:geometricPrecision;text-rendering:geometricPrecision;image-rendering:optimizeQuality;fill-rule:evenodd;clip-rule:evenodd"><path style="opacity:1" fill="#000001" d="M-.5-.5h1336v989c-13.2 94.76-41.03 185.1-83.5 271-20.67 37.3-43.67 72.97-69 107a2462.695 2462.695 0 0 1-57.5 61.5 1101.837 1101.837 0 0 1-54 43.5c-1.53-.07-2.53.59-3 2a387.141 387.141 0 0 0-31 20.5 20.69 20.69 0 0 1-6 2c-8.33 5.83-17 11.17-26 16a2104.508 2104.508 0 0 1-47 22c-61.397 24.6-125.064 40.6-191 48-14.51.89-28.843 2.06-43 3.5h-103c-79.445-3.99-156.779-19.49-232-46.5a765.87 765.87 0 0 1-47-22.5 183.18 183.18 0 0 0-32-17 493.759 493.759 0 0 1-40-24.5 656.822 656.822 0 0 1-86.5-74.5 3175.19 3175.19 0 0 0-43.5-51c-.345-2.7-1.678-4.7-4-6a63.821 63.821 0 0 0-11-15c-3.97-4.81-7.803-9.81-11.5-15-46.97-76.19-80.303-158.19-100-246a1525.935 1525.935 0 0 0-14.5-72V-.5z"/><path style="opacity:1" fill="#2095cb" d="M50.5 1161.5a143.862 143.862 0 0 0-8-22c-9.299-24.19-15.966-49.19-20-75-.792-8.63-2.46-16.96-5-25-3.1-18-6.266-36-9.5-54-.667-325-.667-650 0-975A9.47 9.47 0 0 1 9.5 8c439.333-.5 878.667-.667 1318-.5.17 325.334 0 650.667-.5 976-13.08 108.92-46.75 210.92-101 306a982.729 982.729 0 0 1-42 62c-48.59-231.95-96.76-463.787-144.5-695.5 29.33-.5 58.66-.667 88-.5.33-38.239 0-76.406-1-114.5-305.667-.667-611.333-.667-917 0a2193.564 2193.564 0 0 0-.5 114.5c30.1.663 60.267 1.33 90.5 2a24795.21 24795.21 0 0 0-35 151 4.933 4.933 0 0 0 1 2.5A380674.468 380674.468 0 0 0 151 1346.5c-.333.33-.667.67-1 1-11.333-15.33-22.667-30.67-34-46-7.413-13.83-15.08-27.5-23-41a808.145 808.145 0 0 1-42.5-99z"/><path style="opacity:1" d="M885.5 267.5c6.776 1.854 13.776 3.188 21 4 1.228 1.51 1.228 3.01 0 4.5A16892.102 16892.102 0 0 1 745 305.5c-.667 1.333-.667 2.667 0 4 30.58 44.16 60.914 88.493 91 133 .833 3.167-.333 4.333-3.5 3.5A9791.649 9791.649 0 0 0 697 347.5l-30 168c-5.037 2.307-7.371.64-7-5A7215.726 7215.726 0 0 0 634.5 351c-2.712-.738-5.045-.071-7 2l-130 90c-1.284.684-2.451.517-3.5-.5-.418-2.288.249-4.288 2-6a18131.078 18131.078 0 0 0 96.5-133c2.834-2.149 2.501-3.149-1-3a36958.732 36958.732 0 0 1-154-24.5 30.294 30.294 0 0 1-10-3c-1.472-3.552-.138-5.218 4-5a19514.622 19514.622 0 0 0 158-29A29328.404 29328.404 0 0 0 499 103.5c-.833-3.167.333-4.333 3.5-3.5A10355.086 10355.086 0 0 0 639 197.5a6374.841 6374.841 0 0 0 28-169c1.333-1.333 2.667-1.333 4 0a21468.333 21468.333 0 0 1 27 166L834.5 102c1.667-.667 3.333-.667 5 0 1.017 1.049 1.184 2.216.5 3.5l-97.5 137a31768.347 31768.347 0 0 1 143 25z"/><path style="opacity:1" fill="#a69270" d="M668.5 46.5a74050.676 74050.676 0 0 1 26 154.5c1 .667 2 .667 3 0a6706.116 6706.116 0 0 0 129-87.5l1 1a17267.67 17267.67 0 0 1-91.5 128c-.667 1-.667 2 0 3a14.293 14.293 0 0 0 6.5 2.5c49.426 8.681 98.76 17.348 148 26-48.851 9.31-97.851 18.31-147 27-5.394.365-6.894 2.865-4.5 7.5A22315.9 22315.9 0 0 1 820.5 430l-1 .5a17100.622 17100.622 0 0 1-123-90.5c-1.284-.684-2.451-.517-3.5.5a41626.487 41626.487 0 0 1-29 163 8737.273 8737.273 0 0 1-24.5-163c-4.317 1.462-8.317 3.628-12 6.5a6272.975 6272.975 0 0 1-121 83.5 20922.421 20922.421 0 0 0 94.5-130c.667-1 .667-2 0-3A11677.001 11677.001 0 0 0 440.5 272 25250.54 25250.54 0 0 0 596 242.5c.667-1 .667-2 0-3a6819.162 6819.162 0 0 1-83-126 14102.149 14102.149 0 0 0 130 93 7988.084 7988.084 0 0 0 25.5-160z"/><path style="opacity:1" fill="#345f6c" d="M885.5 267.5a139.56 139.56 0 0 1 19 2.5c.916.278 1.582.778 2 1.5-7.224-.812-14.224-2.146-21-4z"/><path style="opacity:1" fill="#78745d" d="M591.5 300.5c3.501-.149 3.834.851 1 3a5.727 5.727 0 0 0-1-3z"/><path style="opacity:1" fill="#a69270" d="M1152.5 1227.5c.54 8.03 2.2 15.7 5 23 8.13 35.83 15.3 71.83 21.5 108-18.47 20.8-37.3 41.3-56.5 61.5-10.19 8.36-20.52 16.52-31 24.5-38.2-182.82-76.2-365.65-114-548.5a95124.938 95124.938 0 0 0-617 0A127390.205 127390.205 0 0 0 243 1437.5c-.131 3.89-1.631 4.73-4.5 2.5a968.549 968.549 0 0 0-39.5-34.5 3297.908 3297.908 0 0 0-44.5-52 191063.315 191063.315 0 0 0 127.5-599 11466.102 11466.102 0 0 0 23.5-103h-92v-106c302.667-.167 605.334 0 908 .5 1 34.427 1.33 68.927 1 103.5-29.67-.167-59.34 0-89 .5a4.942 4.942 0 0 0-1 2.5 110135.1 110135.1 0 0 1 120 575z"/><path style="opacity:1" d="M412.5 649.5c170.334-.167 340.667 0 511 .5a3674.236 3674.236 0 0 1 20 91 6.293 6.293 0 0 1-1 3c-183.667.667-367.333.667-551 0a3.943 3.943 0 0 1-1-2 6190.419 6190.419 0 0 0 22-92.5z"/><path style="opacity:1" fill="#2095cb" d="M917.5 654.5c.79.901 1.79 1.568 3 2 5.686 27.6 11.686 55.1 18 82.5-179.666.5-359.333.667-539 .5a10.98 10.98 0 0 1-1-3.5 247.153 247.153 0 0 0 6-28.5 993.094 993.094 0 0 1 8.5-27 341.57 341.57 0 0 0 2.5-20c-.322-2.222.345-4.056 2-5.5 166.666-.5 333.333-.667 500-.5z"/><path style="opacity:1" fill="#837963" d="M917.5 654.5c1.679-.215 2.679.452 3 2-1.21-.432-2.21-1.099-3-2z"/><path style="opacity:1" fill="#316478" d="M415.5 660.5a341.57 341.57 0 0 1-2.5 20 993.094 993.094 0 0 0-8.5 27 587.514 587.514 0 0 1 11-47z"/><path style="opacity:1" fill="#2d657f" d="M404.5 707.5a247.153 247.153 0 0 1-6 28.5 10.98 10.98 0 0 0 1 3.5c-1.175.219-2.175-.114-3-1a1045.592 1045.592 0 0 1 8-31z"/><path style="opacity:1" d="M386.5 777.5h565a4267.437 4267.437 0 0 1 17 80c-199.667.167-399.334 0-599-.5a3.943 3.943 0 0 1-1-2 12893.37 12893.37 0 0 0 18-77.5z"/><path style="opacity:1" fill="#2095cb" d="M391.5 782.5c185-.167 370 0 555 .5a1174.804 1174.804 0 0 1 16 69.5c-195.334.167-390.667 0-586-.5-1.102-2.401-1.269-4.901-.5-7.5a1053.184 1053.184 0 0 1 15.5-62zM435.5 1544.5c-.111-.62-.444-1.12-1-1.5a77.39 77.39 0 0 0-12-2.5c-3.662-.22-6.995-1.22-10-3-.453-.96-1.119-1.79-2-2.5a224.336 224.336 0 0 0-20-5.5c-1.903-.3-3.57-.96-5-2-4.115-4.05-9.115-6.38-15-7a3046.74 3046.74 0 0 0-66-33.5 2250.589 2250.589 0 0 0-53-36c-2.085-1.74-3.752-3.74-5-6 39.223-181.48 78.39-362.64 117.5-543.5a61942.917 61942.917 0 0 1 609.5-.5c38.27 182.7 75.77 365.54 112.5 548.5-67.12 51.47-141.951 87.31-224.5 107.5a2477.442 2477.442 0 0 0-61 13 1222.498 1222.498 0 0 1-185 7c-61.269-4.09-121.269-14.92-180-32.5z"/><path style="opacity:1" fill="#fefefe" d="M1335.5 988.5v597h-611a1075.65 1075.65 0 0 1 43-3.5c65.936-7.4 129.603-23.4 191-48 15.753-7.14 31.42-14.47 47-22 9-4.83 17.67-10.17 26-16a20.69 20.69 0 0 0 6-2 387.141 387.141 0 0 1 31-20.5c1.53.07 2.53-.59 3-2 18.39-13.88 36.39-28.38 54-43.5 19.56-20.22 38.73-40.72 57.5-61.5 25.33-34.03 48.33-69.7 69-107 42.47-85.9 70.3-176.24 83.5-271zM-.5 995.5a1525.935 1525.935 0 0 1 14.5 72c19.697 87.81 53.03 169.81 100 246 3.697 5.19 7.53 10.19 11.5 15a63.821 63.821 0 0 0 11 15c.84 2.35 2.174 4.35 4 6a3175.19 3175.19 0 0 1 43.5 51 656.822 656.822 0 0 0 86.5 74.5 493.759 493.759 0 0 0 40 24.5 366.034 366.034 0 0 0 32 17 765.87 765.87 0 0 0 47 22.5c75.221 27.01 152.555 42.51 232 46.5H-.5v-590z"/><path style="opacity:1" fill="#336a80" d="M17.5 1039.5c2.54 8.04 4.208 16.37 5 25-2.618-8.02-4.285-16.35-5-25z"/><path style="opacity:1" fill="#30657a" d="M42.5 1139.5c3.243 7.06 5.91 14.39 8 22-3.632-6.89-6.298-14.22-8-22z"/><path style="opacity:1" fill="#6d8682" d="M1152.5 1227.5c2.11 7.45 3.78 15.12 5 23-2.8-7.3-4.46-14.97-5-23z"/><path style="opacity:1" fill="#375b63" d="M125.5 1328.5a63.821 63.821 0 0 1 11 15 63.821 63.821 0 0 1-11-15z"/><path style="opacity:1" fill="#32525b" d="M136.5 1343.5c2.322 1.3 3.655 3.3 4 6a14.567 14.567 0 0 1-4-6z"/><path style="opacity:1" fill="#677876" d="M1071.5 1471.5c-.47 1.41-1.47 2.07-3 2 .47-1.41 1.47-2.07 3-2z"/><path style="opacity:1" fill="#31545e" d="M310.5 1499.5a183.18 183.18 0 0 1 32 17 366.034 366.034 0 0 1-32-17z"/><path style="opacity:1" fill="#336b7a" d="M370.5 1520.5c5.885.62 10.885 2.95 15 7a51.468 51.468 0 0 1-15-7z"/><path style="opacity:1" fill="#326479" d="M390.5 1529.5a224.336 224.336 0 0 1 20 5.5c.881.71 1.547 1.54 2 2.5-7.626-2.1-14.959-4.76-22-8z"/><path style="opacity:1" fill="#316981" d="M422.5 1540.5a77.39 77.39 0 0 1 12 2.5c.556.38.889.88 1 1.5-4.572-.89-8.905-2.22-13-4z"/></svg>

<?xml version="1.0" encoding="UTF-8"?>
<!DOCTYPE svg PUBLIC "-//W3C//DTD SVG 1.1//EN" "http://www.w3.org/Graphics/SVG/1.1/DTD/svg11.dtd">
<svg xmlns="http://www.w3.org/2000/svg" version="1.1" width="1336px" height="1586px" style="shape-rendering:geometricPrecision; text-rendering:geometricPrecision; image-rendering:optimizeQuality; fill-rule:evenodd; clip-rule:evenodd" xmlns:xlink="http://www.w3.org/1999/xlink">
<g><path style="opacity:1" fill="#000001" d="M -0.5,-0.5 C 444.833,-0.5 890.167,-0.5 1335.5,-0.5C 1335.5,329.167 1335.5,658.833 1335.5,988.5C 1322.3,1083.26 1294.47,1173.6 1252,1259.5C 1231.33,1296.8 1208.33,1332.47 1183,1366.5C 1164.23,1387.28 1145.06,1407.78 1125.5,1428C 1107.89,1443.12 1089.89,1457.62 1071.5,1471.5C 1069.97,1471.43 1068.97,1472.09 1068.5,1473.5C 1057.85,1479.83 1047.52,1486.66 1037.5,1494C 1035.61,1494.97 1033.61,1495.64 1031.5,1496C 1023.17,1501.83 1014.5,1507.17 1005.5,1512C 989.92,1519.53 974.253,1526.86 958.5,1534C 897.103,1558.6 833.436,1574.6 767.5,1582C 752.99,1582.89 738.657,1584.06 724.5,1585.5C 690.167,1585.5 655.833,1585.5 621.5,1585.5C 542.055,1581.51 464.721,1566.01 389.5,1539C 373.53,1532.01 357.863,1524.51 342.5,1516.5C 332.475,1509.82 321.809,1504.15 310.5,1499.5C 296.805,1491.98 283.472,1483.82 270.5,1475C 239.527,1452.7 210.694,1427.86 184,1400.5C 169.665,1383.33 155.165,1366.33 140.5,1349.5C 140.155,1346.8 138.822,1344.8 136.5,1343.5C 133.564,1337.96 129.897,1332.96 125.5,1328.5C 121.53,1323.69 117.697,1318.69 114,1313.5C 67.03,1237.31 33.6967,1155.31 14,1067.5C 9.70129,1043.17 4.86795,1019.17 -0.5,995.5C -0.5,663.5 -0.5,331.5 -0.5,-0.5 Z"/></g>
<g><path style="opacity:1" fill="#2095cb" d="M 50.5,1161.5 C 48.41,1153.89 45.7433,1146.56 42.5,1139.5C 33.2011,1115.31 26.5344,1090.31 22.5,1064.5C 21.7076,1055.87 20.0409,1047.54 17.5,1039.5C 14.4006,1021.5 11.2339,1003.5 8,985.5C 7.33333,660.5 7.33333,335.5 8,10.5C 8.37424,9.58377 8.87424,8.75044 9.5,8C 448.833,7.5 888.167,7.33333 1327.5,7.5C 1327.67,332.834 1327.5,658.167 1327,983.5C 1313.92,1092.42 1280.25,1194.42 1226,1289.5C 1212.78,1310.71 1198.78,1331.38 1184,1351.5C 1135.41,1119.55 1087.24,887.713 1039.5,656C 1068.83,655.5 1098.16,655.333 1127.5,655.5C 1127.83,617.261 1127.5,579.094 1126.5,541C 820.833,540.333 515.167,540.333 209.5,541C 208.337,579.095 208.171,617.262 209,655.5C 239.1,656.163 269.267,656.83 299.5,657.5C 287.678,707.787 276.012,758.12 264.5,808.5C 264.608,809.442 264.941,810.275 265.5,811C 227.212,989.436 189.046,1167.94 151,1346.5C 150.667,1346.83 150.333,1347.17 150,1347.5C 138.667,1332.17 127.333,1316.83 116,1301.5C 108.587,1287.67 100.92,1274 93,1260.5C 76.6117,1228.4 62.4451,1195.4 50.5,1161.5 Z"/></g>
<g><path style="opacity:1" fill="#000000" d="M 885.5,267.5 C 892.276,269.354 899.276,270.688 906.5,271.5C 907.728,273.01 907.728,274.51 906.5,276C 852.463,286.141 798.63,295.974 745,305.5C 744.333,306.833 744.333,308.167 745,309.5C 775.58,353.66 805.914,397.993 836,442.5C 836.833,445.667 835.667,446.833 832.5,446C 787.613,412.78 742.447,379.946 697,347.5C 687.004,403.472 677.004,459.472 667,515.5C 661.963,517.807 659.629,516.14 660,510.5C 652.088,457.194 643.588,404.027 634.5,351C 631.788,350.262 629.455,350.929 627.5,353C 584.167,383 540.833,413 497.5,443C 496.216,443.684 495.049,443.517 494,442.5C 493.582,440.212 494.249,438.212 496,436.5C 528.385,392.288 560.552,347.955 592.5,303.5C 595.334,301.351 595.001,300.351 591.5,300.5C 540.16,292.443 488.827,284.277 437.5,276C 433.991,275.578 430.657,274.578 427.5,273C 426.028,269.448 427.362,267.782 431.5,268C 484.235,258.545 536.902,248.878 589.5,239C 559.457,193.747 529.291,148.581 499,103.5C 498.167,100.333 499.333,99.1667 502.5,100C 547.736,132.868 593.236,165.368 639,197.5C 649.085,141.325 658.418,84.9913 667,28.5C 668.333,27.1667 669.667,27.1667 671,28.5C 680.216,83.7934 689.216,139.127 698,194.5C 743.5,163.667 789,132.833 834.5,102C 836.167,101.333 837.833,101.333 839.5,102C 840.517,103.049 840.684,104.216 840,105.5C 807.5,151.167 775,196.833 742.5,242.5C 790.237,250.733 837.903,259.067 885.5,267.5 Z"/></g>
<g><path style="opacity:1" fill="#a69270" d="M 668.5,46.5 C 677.205,97.8928 685.871,149.393 694.5,201C 695.5,201.667 696.5,201.667 697.5,201C 740.846,172.328 783.846,143.162 826.5,113.5C 826.833,113.833 827.167,114.167 827.5,114.5C 797.194,157.306 766.694,199.973 736,242.5C 735.333,243.5 735.333,244.5 736,245.5C 737.945,246.863 740.112,247.697 742.5,248C 791.926,256.681 841.26,265.348 890.5,274C 841.649,283.31 792.649,292.31 743.5,301C 738.106,301.365 736.606,303.865 739,308.5C 766.279,348.88 793.445,389.38 820.5,430C 820.167,430.167 819.833,430.333 819.5,430.5C 778.336,400.495 737.336,370.328 696.5,340C 695.216,339.316 694.049,339.483 693,340.5C 683.441,394.853 673.775,449.186 664,503.5C 655.32,449.237 647.153,394.904 639.5,340.5C 635.183,341.962 631.183,344.128 627.5,347C 587.411,375.362 547.078,403.196 506.5,430.5C 538.105,387.372 569.605,344.039 601,300.5C 601.667,299.5 601.667,298.5 601,297.5C 547.561,288.628 494.061,280.128 440.5,272C 492.382,262.326 544.216,252.492 596,242.5C 596.667,241.5 596.667,240.5 596,239.5C 567.768,197.653 540.101,155.653 513,113.5C 556.157,144.745 599.49,175.745 643,206.5C 652.042,153.246 660.542,99.9124 668.5,46.5 Z"/></g>
<g><path style="opacity:1" fill="#345f6c" d="M 885.5,267.5 C 891.882,267.897 898.215,268.73 904.5,270C 905.416,270.278 906.082,270.778 906.5,271.5C 899.276,270.688 892.276,269.354 885.5,267.5 Z"/></g>
<g><path style="opacity:1" fill="#78745d" d="M 591.5,300.5 C 595.001,300.351 595.334,301.351 592.5,303.5C 592.443,302.391 592.11,301.391 591.5,300.5 Z"/></g>
<g><path style="opacity:1" fill="#a69270" d="M 1152.5,1227.5 C 1153.04,1235.53 1154.7,1243.2 1157.5,1250.5C 1165.63,1286.33 1172.8,1322.33 1179,1358.5C 1160.53,1379.3 1141.7,1399.8 1122.5,1420C 1112.31,1428.36 1101.98,1436.52 1091.5,1444.5C 1053.3,1261.68 1015.3,1078.85 977.5,896C 771.833,895.333 566.167,895.333 360.5,896C 320.948,1076.38 281.782,1256.88 243,1437.5C 242.869,1441.39 241.369,1442.23 238.5,1440C 225.629,1428.13 212.463,1416.63 199,1405.5C 184.354,1388.02 169.521,1370.69 154.5,1353.5C 197.318,1153.91 239.818,954.245 282,754.5C 289.995,720.188 297.828,685.855 305.5,651.5C 274.833,651.5 244.167,651.5 213.5,651.5C 213.5,616.167 213.5,580.833 213.5,545.5C 516.167,545.333 818.834,545.5 1121.5,546C 1122.5,580.427 1122.83,614.927 1122.5,649.5C 1092.83,649.333 1063.16,649.5 1033.5,650C 1032.94,650.725 1032.61,651.558 1032.5,652.5C 1073.01,844.056 1113.01,1035.72 1152.5,1227.5 Z"/></g>
<g><path style="opacity:1" fill="#000000" d="M 412.5,649.5 C 582.834,649.333 753.167,649.5 923.5,650C 930.542,680.207 937.209,710.541 943.5,741C 943.415,742.107 943.081,743.107 942.5,744C 758.833,744.667 575.167,744.667 391.5,744C 390.978,743.439 390.645,742.772 390.5,742C 398.08,711.182 405.413,680.349 412.5,649.5 Z"/></g>
<g><path style="opacity:1" fill="#2095cb" d="M 917.5,654.5 C 918.29,655.401 919.29,656.068 920.5,656.5C 926.186,684.1 932.186,711.6 938.5,739C 758.834,739.5 579.167,739.667 399.5,739.5C 398.982,738.423 398.648,737.256 398.5,736C 401.076,726.543 403.076,717.043 404.5,707.5C 407.136,698.678 409.97,689.678 413,680.5C 414.031,673.848 414.865,667.181 415.5,660.5C 415.178,658.278 415.845,656.444 417.5,655C 584.166,654.5 750.833,654.333 917.5,654.5 Z"/></g>
<g><path style="opacity:1" fill="#837963" d="M 917.5,654.5 C 919.179,654.285 920.179,654.952 920.5,656.5C 919.29,656.068 918.29,655.401 917.5,654.5 Z"/></g>
<g><path style="opacity:1" fill="#316478" d="M 415.5,660.5 C 414.865,667.181 414.031,673.848 413,680.5C 409.97,689.678 407.136,698.678 404.5,707.5C 407.548,691.574 411.215,675.908 415.5,660.5 Z"/></g>
<g><path style="opacity:1" fill="#2d657f" d="M 404.5,707.5 C 403.076,717.043 401.076,726.543 398.5,736C 398.648,737.256 398.982,738.423 399.5,739.5C 398.325,739.719 397.325,739.386 396.5,738.5C 399.038,728.013 401.704,717.679 404.5,707.5 Z"/></g>
<g><path style="opacity:1" fill="#000000" d="M 386.5,777.5 C 574.833,777.5 763.167,777.5 951.5,777.5C 957.422,804.112 963.089,830.779 968.5,857.5C 768.833,857.667 569.166,857.5 369.5,857C 368.978,856.439 368.645,855.772 368.5,855C 374.589,829.145 380.589,803.312 386.5,777.5 Z"/></g>
<g><path style="opacity:1" fill="#2095cb" d="M 391.5,782.5 C 576.5,782.333 761.5,782.5 946.5,783C 952.527,805.964 957.861,829.131 962.5,852.5C 767.166,852.667 571.833,852.5 376.5,852C 375.398,849.599 375.231,847.099 376,844.5C 380.565,823.574 385.732,802.907 391.5,782.5 Z"/></g>
<g><path style="opacity:1" fill="#2095cb" d="M 435.5,1544.5 C 435.389,1543.88 435.056,1543.38 434.5,1543C 430.553,1541.85 426.553,1541.01 422.5,1540.5C 418.838,1540.28 415.505,1539.28 412.5,1537.5C 412.047,1536.54 411.381,1535.71 410.5,1535C 403.876,1532.85 397.209,1531.01 390.5,1529.5C 388.597,1529.2 386.93,1528.54 385.5,1527.5C 381.385,1523.45 376.385,1521.12 370.5,1520.5C 348.709,1509.1 326.709,1497.94 304.5,1487C 287.006,1474.75 269.34,1462.75 251.5,1451C 249.415,1449.26 247.748,1447.26 246.5,1445C 285.723,1263.52 324.89,1082.36 364,901.5C 567.097,900.334 770.264,900.167 973.5,901C 1011.77,1083.7 1049.27,1266.54 1086,1449.5C 1018.88,1500.97 944.049,1536.81 861.5,1557C 841.084,1561.08 820.751,1565.42 800.5,1570C 739.038,1577.01 677.371,1579.34 615.5,1577C 554.231,1572.91 494.231,1562.08 435.5,1544.5 Z"/></g>
<g><path style="opacity:1" fill="#fefefe" d="M 1335.5,988.5 C 1335.5,1187.5 1335.5,1386.5 1335.5,1585.5C 1131.83,1585.5 928.167,1585.5 724.5,1585.5C 738.657,1584.06 752.99,1582.89 767.5,1582C 833.436,1574.6 897.103,1558.6 958.5,1534C 974.253,1526.86 989.92,1519.53 1005.5,1512C 1014.5,1507.17 1023.17,1501.83 1031.5,1496C 1033.61,1495.64 1035.61,1494.97 1037.5,1494C 1047.52,1486.66 1057.85,1479.83 1068.5,1473.5C 1070.03,1473.57 1071.03,1472.91 1071.5,1471.5C 1089.89,1457.62 1107.89,1443.12 1125.5,1428C 1145.06,1407.78 1164.23,1387.28 1183,1366.5C 1208.33,1332.47 1231.33,1296.8 1252,1259.5C 1294.47,1173.6 1322.3,1083.26 1335.5,988.5 Z"/></g>
<g><path style="opacity:1" fill="#fefefe" d="M -0.5,995.5 C 4.86795,1019.17 9.70129,1043.17 14,1067.5C 33.6967,1155.31 67.03,1237.31 114,1313.5C 117.697,1318.69 121.53,1323.69 125.5,1328.5C 128.436,1334.04 132.103,1339.04 136.5,1343.5C 137.34,1345.85 138.674,1347.85 140.5,1349.5C 155.165,1366.33 169.665,1383.33 184,1400.5C 210.694,1427.86 239.527,1452.7 270.5,1475C 283.472,1483.82 296.805,1491.98 310.5,1499.5C 320.842,1505.67 331.509,1511.34 342.5,1516.5C 357.863,1524.51 373.53,1532.01 389.5,1539C 464.721,1566.01 542.055,1581.51 621.5,1585.5C 414.167,1585.5 206.833,1585.5 -0.5,1585.5C -0.5,1388.83 -0.5,1192.17 -0.5,995.5 Z"/></g>
<g><path style="opacity:1" fill="#336a80" d="M 17.5,1039.5 C 20.0409,1047.54 21.7076,1055.87 22.5,1064.5C 19.8819,1056.48 18.2152,1048.15 17.5,1039.5 Z"/></g>
<g><path style="opacity:1" fill="#30657a" d="M 42.5,1139.5 C 45.7433,1146.56 48.41,1153.89 50.5,1161.5C 46.8683,1154.61 44.2017,1147.28 42.5,1139.5 Z"/></g>
<g><path style="opacity:1" fill="#6d8682" d="M 1152.5,1227.5 C 1154.61,1234.95 1156.28,1242.62 1157.5,1250.5C 1154.7,1243.2 1153.04,1235.53 1152.5,1227.5 Z"/></g>
<g><path style="opacity:1" fill="#375b63" d="M 125.5,1328.5 C 129.897,1332.96 133.564,1337.96 136.5,1343.5C 132.103,1339.04 128.436,1334.04 125.5,1328.5 Z"/></g>
<g><path style="opacity:1" fill="#32525b" d="M 136.5,1343.5 C 138.822,1344.8 140.155,1346.8 140.5,1349.5C 138.674,1347.85 137.34,1345.85 136.5,1343.5 Z"/></g>
<g><path style="opacity:1" fill="#677876" d="M 1071.5,1471.5 C 1071.03,1472.91 1070.03,1473.57 1068.5,1473.5C 1068.97,1472.09 1069.97,1471.43 1071.5,1471.5 Z"/></g>
<g><path style="opacity:1" fill="#31545e" d="M 310.5,1499.5 C 321.809,1504.15 332.475,1509.82 342.5,1516.5C 331.509,1511.34 320.842,1505.67 310.5,1499.5 Z"/></g>
<g><path style="opacity:1" fill="#336b7a" d="M 370.5,1520.5 C 376.385,1521.12 381.385,1523.45 385.5,1527.5C 380.081,1525.96 375.081,1523.62 370.5,1520.5 Z"/></g>
<g><path style="opacity:1" fill="#326479" d="M 390.5,1529.5 C 397.209,1531.01 403.876,1532.85 410.5,1535C 411.381,1535.71 412.047,1536.54 412.5,1537.5C 404.874,1535.4 397.541,1532.74 390.5,1529.5 Z"/></g>
<g><path style="opacity:1" fill="#316981" d="M 422.5,1540.5 C 426.553,1541.01 430.553,1541.85 434.5,1543C 435.056,1543.38 435.389,1543.88 435.5,1544.5C 430.928,1543.61 426.595,1542.28 422.5,1540.5 Z"/></g>
</svg>
